X:119
T:Gustavus Galloppe. JMT.119
M:2/4
L:1/8
Q:1/4=100
S:J.Moore,Tyneside,1841.(84a)
R:.Gallop
O:England
A:Northumbria
Z:vmp.Chris Partington
K:G
D|”Pia”GE/G/ BG/B/|dB/d/ gd|dccA|eddD|!
GD/G/ BG/B/|dB/d/ gB|dccA|G3:|!
|:”Pia”B|d-ccA|e-ddB|d-ccA|eddD|!
” For”GD/G/ BG/B/|dB/d/gd|dccA|G3:|!
|:”Solo”c|(dd^cd)|.b(b^ab)|.a(a^ga)|=g/f/g/a/”sic”d2B2|!
.d(d^cd)|.b(b^ab)|aa^ga|g3:|

